X:355
T: ICH HAB DURCHWANDERT STAEDT UND LAND
N: E1523
O: Europa, Mitteleuropa, Deutschland
R: Staende -, Bergmanns - Lied
M: 4/4
L: 1/8
K: C
C2G2A2 | B2G2A2B2 | c4z2
c2 | e2f2g2d2 | f3ed4 | z4
d2 | d4d2 | c4B2 | c3BA2 | G4
G2 | c4c2 | G4G2 | E4D2 | C4
C2 | G4G2 | A4B2 | c4c2 | c4
c2 | d4c2 | B4A2 | G4A2 | E4
E2 | G4G2 | A4A2 | F4F2 | D4
D2 | G4A2 | G4F2 | E4D2 | C6

@@@ Tune index: 5039
